public/avatar/item2/16.svg

<svg xmlns:xlink="http://www.w3.org/1999/xlink" height="99.2" width="82.2" xmlns="http://www.w3.org/2000/svg"><use height="10.7" transform="translate(32.1 70.95)" width="10.3" xlink:href="#a"/><defs><g id="a"><path d="M10.9 29.55q0 1.8-1.4 3.3-1.4 1.55-3.25 1.55-1.8 0-3.25-1.5-1.4-1.5-1.4-3.3 0-1.8 1.4-3.35 1.45-1.55 3.25-1.55 1.85 0 3.25 1.55 1.4 1.5 1.4 3.3" fill-rule="evenodd" transform="translate(-1.1 -24.2)"/><path d="M10.9 29.55q0 1.8-1.4 3.3-1.4 1.55-3.25 1.55-1.8 0-3.25-1.5-1.4-1.5-1.4-3.3 0-1.8 1.4-3.35 1.45-1.55 3.25-1.55 1.85 0 3.25 1.55 1.4 1.5 1.4 3.3Z" fill="none" stroke="#000" stroke-linecap="round" stroke-linejoin="round" transform="translate(-1.1 -24.2)"/><path d="M10.6 29.6q0 1.65-1.4 2.75-1.3 1.05-3.05 1.05-1.75 0-3.05-1.1-1.3-1.15-1.3-2.7 0-1.65 1.25-3.1 1.3-1.5 3.1-1.5t3.15 1.45q1.3 1.4 1.3 3.15" fill="#ceeb7a" fill-rule="evenodd" transform="translate(-1.1 -24.2)"/><path d="m6.5 25.95.4-.8q1.15 0 2 .9l1.05 1.45-.6.55-1.65-.7-1.2-1.4" fill="#fcfff2" fill-rule="evenodd" transform="translate(-1.1 -24.2)"/><path d="m6.3 32.6 2.1.05q-1.1.8-2.15.8-3 0-3.9-2.9Q3.9 32 4.65 32.3l1.65.3" fill="#fff" fill-rule="evenodd" transform="translate(-1.1 -24.2)"/><path d="m6.25 30.35-2.45-2.3 2.45-2.35v4.65" fill="#ceeb7a" fill-rule="evenodd" transform="translate(-1.1 -24.2)"/><path d="M7.85 26.55q1.7 1.2 1.7 1.6 0 .45-2.05 1.7-1 .65-1.35.6l.05-.9-.85.4q-1.4.85-1.4 1.55 0 .6 1.7 1.85l.45.1.15-.05v1Q4.3 34.4 3 32.95q-.9-.65-.9-2.35 0-1.4 1.4-2.75.95-.95 2.75-.95l-.05-1.05 1.65.7" fill="#007a02" fill-rule="evenodd" transform="translate(-1.1 -24.2)"/><path d="M9.55 32.6q-1.5 1.75-3.2 1.8H5.9l-.4-.65.4-1.1q1.85 0 3.3-1.2 1.5-1.3 1.4-2.3.25 1.95-1.05 3.45M6.1 25.85q3.25 1.8 3.25 2.3 0 .5-3.35 2.4l.1-4.7" fill="#007a02" fill-rule="evenodd" transform="translate(-1.1 -24.2)"/><path d="M6.05 33.9Q2.8 32.1 2.8 31.6l3.35-2.4-.1 4.7" fill="#ceeb7a" fill-rule="evenodd" transform="translate(-1.1 -24.2)"/><path d="M3.9 26.05q.6-.8 2.4-.8 1.8 0 3.05 1.85" fill="none" stroke="#fcfff2" stroke-linecap="round" stroke-linejoin="round" transform="translate(-1.1 -24.2)"/></g></defs></svg>

<?xml version="1.0" encoding="UTF-8" standalone="no"?>
<svg xmlns:xlink="http://www.w3.org/1999/xlink" height="99.2px" width="82.2px" xmlns="http://www.w3.org/2000/svg">
  <g transform="matrix(1.0, 0.0, 0.0, 1.0, 31.0, 46.75)">
    <use height="10.7" transform="matrix(1.0, 0.0, 0.0, 1.0, 1.1, 24.2)" width="10.3" xlink:href="#shape0"/>
  </g>
  <defs>
    <g id="shape0" transform="matrix(1.0, 0.0, 0.0, 1.0, -1.1, -24.2)">
      <path d="M10.9 29.55 Q10.9 31.35 9.5 32.85 8.1 34.4 6.25 34.4 4.45 34.4 3.0 32.9 1.6 31.4 1.6 29.6 1.6 27.8 3.0 26.25 4.45 24.7 6.25 24.7 8.1 24.7 9.5 26.25 10.9 27.75 10.9 29.55" fill="#000000" fill-rule="evenodd" stroke="none"/>
      <path d="M10.9 29.55 Q10.9 31.35 9.5 32.85 8.1 34.4 6.25 34.4 4.45 34.4 3.0 32.9 1.6 31.4 1.6 29.6 1.6 27.8 3.0 26.25 4.45 24.7 6.25 24.7 8.1 24.7 9.5 26.25 10.9 27.75 10.9 29.55 Z" fill="none" stroke="#000000" stroke-linecap="round" stroke-linejoin="round" stroke-width="1.0"/>
      <path d="M10.6 29.6 Q10.6 31.25 9.2 32.35 7.9 33.4 6.15 33.4 4.4 33.4 3.1 32.3 1.8 31.15 1.8 29.6 1.8 27.95 3.05 26.5 4.35 25.0 6.15 25.0 7.95 25.0 9.3 26.45 10.6 27.85 10.6 29.6" fill="#ceeb7a" fill-rule="evenodd" stroke="none"/>
      <path d="M6.5 25.95 L6.9 25.15 Q8.05 25.15 8.9 26.05 L9.95 27.5 9.35 28.05 7.7 27.35 6.5 25.95" fill="#fcfff2" fill-rule="evenodd" stroke="none"/>
      <path d="M6.3 32.6 L8.4 32.65 Q7.3 33.45 6.25 33.45 3.25 33.45 2.35 30.55 3.9 32.0 4.65 32.3 L6.3 32.6" fill="#ffffff" fill-rule="evenodd" stroke="none"/>
      <path d="M6.25 30.35 L3.8 28.05 6.25 25.7 6.25 30.35" fill="#ceeb7a" fill-rule="evenodd" stroke="none"/>
      <path d="M7.85 26.55 Q9.55 27.75 9.55 28.15 9.55 28.6 7.5 29.85 6.5 30.5 6.15 30.45 L6.2 29.55 5.35 29.95 Q3.95 30.8 3.95 31.5 3.95 32.1 5.65 33.35 L6.1 33.45 6.25 33.4 6.25 34.4 Q4.3 34.4 3.0 32.95 2.1 32.3 2.1 30.6 2.1 29.2 3.5 27.85 4.45 26.9 6.25 26.9 L6.2 25.85 7.85 26.55" fill="#007a02" fill-rule="evenodd" stroke="none"/>
      <path d="M9.55 32.6 Q8.05 34.35 6.35 34.4 L5.9 34.4 5.5 33.75 5.9 32.65 Q7.75 32.65 9.2 31.45 10.7 30.15 10.6 29.15 10.85 31.1 9.55 32.6" fill="#007a02" fill-rule="evenodd" stroke="none"/>
      <path d="M6.1 25.85 Q9.35 27.65 9.35 28.15 9.35 28.65 6.0 30.55 L6.1 25.85" fill="#007a02" fill-rule="evenodd" stroke="none"/>
      <path d="M6.05 33.9 Q2.8 32.1 2.8 31.6 L6.15 29.2 6.05 33.9" fill="#ceeb7a" fill-rule="evenodd" stroke="none"/>
      <path d="M3.9 26.05 Q4.5 25.25 6.3 25.25 8.1 25.25 9.35 27.1" fill="none" stroke="#fcfff2" stroke-linecap="round" stroke-linejoin="round" stroke-width="1.0"/>
    </g>
  </defs>
</svg>
